app/dist/common/images/rf-acquisition.svg

<svg height="18" viewBox="0 0 18 18" width="18" xmlns="http://www.w3.org/2000/svg"><path d="m0 0h18v18h-18z" fill="#f0f3fa"/><g fill="#e96955"><path d="m5.54 11h-1.54v3h3zm-1.54-2v-3h1.5c.51 0 1.5.33 1.5 1.5s-.95 1.5-1.46 1.5z"/><path d="m14 6v-2h-8.67v.17c2.31 0 3.67 1.81 3.67 3.33a5 5 0 0 1 -1.15 2.9l2.15 3.6v-4h4v-2h-4v-2z"/></g></svg>

<!-- by TradingView --><svg width="18" height="18" viewBox="0 0 18 18" xmlns="http://www.w3.org/2000/svg"><path fill="#F0F3FA" d="M0 0h18v18H0z"/><path d="M5.54 11H4v3h3l-1.46-3ZM4 9V6h1.5C6.01 6 7 6.33 7 7.5S6.05 9 5.54 9H4Z" fill="#E96955"/><path d="M14 6V4H5.33v.17C7.64 4.17 9 5.98 9 7.5a5 5 0 0 1-1.15 2.9L10 14v-4h4V8h-4V6h4Z" fill="#E96955"/></svg>
